X: 812
T: Alan's Chicken Shop
R: jig
M: 6/8
K: Dmajor
a2d dcd|Bcd cBA|BGB cBd-|dcA Bag|
f2d dcd|Bcd cBA|Bcd c3|1 cde de/f/g:|2 cde dcA||
BGB cGd-|ded cBA|BGB cGd-|dcd fed|BGB cGd-|
ded cBA|1 BGB cGc|dcd fed:|2 BGB cBc|dcd efg||
agf gza-|a3-a2c-|cda agg|gff fee|
fBd gzf-|f3-f2f|fee e2g|gff f2a:|

